X: 56
M:2/4
L:1/16
K:A
uE2|AEAc BGBd|cAcd eaec|dcBd cBAc|BAGA BGEG|
|:vcd|ecAc ecag|{g}fefg .f2(Bc)|dBGB dBgf|{f}e^def .e2.E2|


